X: 1
T:An Ceannuighe Sugach
T:The Jolly Pedlar
B:Joyce, P. W.; "Old Irish Folk Music and Songs"
R:song
W:I am a young pedlar that rambles this nation o'er
W:From seaport to seaport and market towns galore,
W:Among jolly comrades I spend my money free,
W:And the bravy Canny Soogagh is noted in each counterie.
L:1/8
M:3/8
K:G
"Moderate: with spirit"\
d|gdB|BAA|BdB|A2 G|G2 D/E/|GAG|GBd|efg|fdc|B2 c/A/|
AGG|GBd|efg|fdB|Hg2 f/a/|gdB|BAA|BdB|A2 G|G2||
